svgs/regular/fish.svg

<svg xmlns="http://www.w3.org/2000/svg" viewBox="0 0 576 512"><!--! Font Awesome Pro 6.5.1 by @fontawesome - https://fontawesome.com License - https://fontawesome.com/license (Commercial License) Copyright 2023 Fonticons, Inc. --><path d="M180.8 303.7c9.2 10.4 19.4 20.6 30.7 30.1c33.7 28.5 76 50.2 124.5 50.2s90.8-21.8 124.5-50.2c30.3-25.5 52.7-55.7 65.3-77.8c-12.6-22.1-35-52.2-65.3-77.8C426.8 149.7 384.5 128 336 128s-90.8 21.7-124.5 50.2c-11.3 9.5-21.5 19.7-30.7 30.1c-14 15.8-36.7 20.6-56 11.8L70.6 195.3l21.1 36.9c8.4 14.8 8.4 32.9 0 47.6L70.6 316.7l54.3-24.9c19.2-8.8 41.9-4 56 11.8zM4.2 336.1L50 256 4.2 175.9c-6.9-12.1-5.2-27.2 4.2-37.5s24.3-13.3 36.9-7.5l99.5 45.6c10.5-11.9 22.5-23.8 35.7-35C219.7 108.5 272.6 80 336 80s116.3 28.5 155.5 61.5c39.1 33 66.9 72.4 81 99.8c4.7 9.2 4.7 20.1 0 29.3c-14.1 27.4-41.9 66.8-81 99.8C452.3 403.5 399.4 432 336 432s-116.3-28.5-155.5-61.5c-13.2-11.2-25.1-23.1-35.7-35L45.3 381.1c-12.6 5.8-27.6 2.8-36.9-7.5S-2.7 348.2 4.2 336.1zM416 224a32 32 0 1 1 0 64 32 32 0 1 1 0-64z"/></svg>

<svg xmlns="http://www.w3.org/2000/svg" viewBox="0 0 576 512"><!--! Font Awesome Pro 6.1.1 by @fontawesome - https://fontawesome.com License - https://fontawesome.com/license (Commercial License) Copyright 2022 Fonticons, Inc. --><path d="M384 256C384 238.3 398.3 224 416 224C433.7 224 448 238.3 448 256C448 273.7 433.7 288 416 288C398.3 288 384 273.7 384 256zM4.217 336.1L50 256L4.217 175.9C-2.68 163.8-.9958 148.7 8.385 138.4C17.77 128.1 32.7 125.1 45.33 130.9L144.8 176.5C155.4 164.6 167.3 152.7 180.5 141.5C219.7 108.5 272.6 80 336 80C399.4 80 452.3 108.5 491.5 141.5C530.5 174.5 558.3 213.1 572.4 241.3C577.2 250.5 577.2 261.5 572.4 270.7C558.3 298 530.5 337.5 491.5 370.5C452.3 403.5 399.4 432 336 432C272.6 432 219.7 403.5 180.5 370.5C167.3 359.3 155.4 347.4 144.8 335.5L45.33 381.1C32.7 386.9 17.77 383.9 8.385 373.6C-.9952 363.3-2.68 348.2 4.217 336.1H4.217zM211.5 333.8C245.2 362.2 287.5 384 336 384C384.5 384 426.8 362.2 460.5 333.8C490.8 308.2 513.2 278.1 525.8 256C513.2 233.9 490.8 203.8 460.5 178.2C426.8 149.7 384.5 128 336 128C287.5 128 245.2 149.7 211.5 178.2C200.2 187.7 189.1 197.1 180.8 208.3L157.2 234.1L70.59 195.3L105.3 256L70.59 316.7L157.2 277L180.8 303.7C189.1 314 200.2 324.3 211.5 333.8V333.8z"/></svg>
